src/symbolic/apps/google-chrome-symbolic.svg

<svg xmlns="http://www.w3.org/2000/svg" width="16" height="16"><path d="M8 0a8 8 0 0 0-6.305 3.08L4.08 7.21A4 4 0 0 1 8 4h6.92A8 8 0 0 0 8 0zM1.078 4.01A8 8 0 0 0 0 8a8 8 0 0 0 6.895 7.91l2.384-4.12A4 4 0 0 1 8 12a4 4 0 0 1-3.459-2h-.006zM8 5a3 3 0 0 0-3 3 3 3 0 0 0 3 3 3 3 0 0 0 3-3 3 3 0 0 0-3-3zm2.639 0A4 4 0 0 1 12 8a4 4 0 0 1-.539 2h.004l-3.463 6A8 8 0 0 0 16 8a8 8 0 0 0-.59-3z" fill="#444"/></svg>

<svg xmlns="http://www.w3.org/2000/svg" width="16" height="16" version="1.1">
 <path style="fill:#444444" d="M 8,0 A 8,8 0 0 0 1.695,3.08 L 4.08,7.21 A 4,4 0 0 1 8,4 H 14.92 A 8,8 0 0 0 8,0 Z M 1.078,4.01 A 8,8 0 0 0 0,8 8,8 0 0 0 6.895,15.91 L 9.279,11.79 A 4,4 0 0 1 8,12 4,4 0 0 1 4.541,10 H 4.535 Z M 8,5 A 3,3 0 0 0 5,8 3,3 0 0 0 8,11 3,3 0 0 0 11,8 3,3 0 0 0 8,5 Z M 10.639,5 A 4,4 0 0 1 12,8 4,4 0 0 1 11.461,10 H 11.465 L 8.002,16 A 8,8 0 0 0 16,8 8,8 0 0 0 15.41,5 Z"/>
</svg>
